X:197
T:Hanslbauer-Steirische (4.)
C:traditionell
R:Steirer
B:"Pfeiermusik aus dem Salzkammergut", zus. A.Ruttner durch V.Derschmidt revidierte Ausgabe, Verlag E. Friedhuber, Wels, 2000
S:im buch mit der angabe: Diese Steirer stammen aus St.Wolfgang vom Hanslbauern. Leopold Khals hat sich, wie er mir (A.Ruttner -SW) mtteilte, mit der Aufzeichnung redlich geplagt und hat auch bemerkt, dass er nichtalle Steirischen erwischt habe.
N:im buch ganz in D, zwei stimmhefte, im II. teil nr. 8/4, erster ton 1. stimme a', erster ton 2. stimme f#'
Z:abc transcripton Simon Wascher
M:3/4
L:1/8
K:C %Transposed from D
V:1
P:4
G2 (cegf) | g2 (dc) d2 | G2 (Bdag) | e2 (cB) c2 |\
G2 (cegf) | g2 (dc) d2 | G2 (Bdag) "&"| c2 z2 z2 :|
V:2
E2 (Gced) | e2 (BA) B2 | F2 (GBfe) | c2 (GF) G2 |\
E2 (Gced) | e2 (BA) B2 | F2 (GBfF) "&"| E2 z2 z2 :|
